assets/images/icons/icn-package-active.svg

<svg xmlns="http://www.w3.org/2000/svg" preserveAspectRatio="xMidYMid" width="16" height="16" viewBox="0 0 16 16"><defs><style>.cls-2{fill:#006ec2}</style></defs><path d="M9 16H7L.988 12.564 0 11V4.001L1.004 2.57 7 0h2l5.984 2.564L16 4v7l-.958 1.548L9 16zm-6.05-4.314L7 14V8L2 6v4l.95 1.686zM9 2H7L2 4l5 2h2l5-2-5-2zm0 6v6l.985-.591 3.006-1.804L14 10V6L9 8z" id="path-1" class="cls-2" fill-rule="evenodd"/></svg>

<svg xmlns="http://www.w3.org/2000/svg" xmlns:xlink="http://www.w3.org/1999/xlink" preserveAspectRatio="xMidYMid" width="16" height="16" viewBox="0 0 16 16">
  <defs>
    <style>

      .cls-2 {
        fill: #006ec2;
      }
    </style>
  </defs>
  <path d="M9.000,16.000 C9.000,16.000 7.000,16.000 7.000,16.000 C7.000,16.000 0.988,12.564 0.988,12.564 C0.988,12.564 -0.000,11.000 -0.000,11.000 C-0.000,11.000 0.000,4.001 0.000,4.001 C0.000,4.001 1.004,2.570 1.004,2.570 C1.004,2.570 7.000,0.000 7.000,0.000 C7.000,0.000 9.000,0.000 9.000,0.000 C9.000,0.000 14.984,2.564 14.984,2.564 C14.984,2.564 16.000,4.000 16.000,4.000 C16.000,4.000 16.000,11.000 16.000,11.000 C16.000,11.000 15.042,12.548 15.042,12.548 C15.042,12.548 9.000,16.000 9.000,16.000 ZM2.950,11.686 C2.950,11.686 7.000,14.000 7.000,14.000 C7.000,14.000 7.000,8.000 7.000,8.000 C7.000,8.000 2.000,6.000 2.000,6.000 C2.000,6.000 2.000,10.000 2.000,10.000 C2.000,10.000 2.950,11.686 2.950,11.686 ZM9.000,2.000 C9.000,2.000 7.000,2.000 7.000,2.000 C7.000,2.000 2.000,4.000 2.000,4.000 C2.000,4.000 7.000,6.000 7.000,6.000 C7.000,6.000 9.000,6.000 9.000,6.000 C9.000,6.000 14.000,4.000 14.000,4.000 C14.000,4.000 9.000,2.000 9.000,2.000 ZM9.000,8.000 C9.000,8.000 9.000,13.000 9.000,13.000 C9.000,13.000 9.000,14.000 9.000,14.000 C9.000,14.000 9.985,13.409 9.985,13.409 C9.985,13.409 12.991,11.605 12.991,11.605 C12.991,11.605 14.000,10.000 14.000,10.000 C14.000,10.000 14.000,6.000 14.000,6.000 C14.000,6.000 9.000,8.000 9.000,8.000 Z" id="path-1" class="cls-2" fill-rule="evenodd"/>
</svg>
